CSETWebApi/CSETWeb_Api/CSETWeb_ApiCore/Diagram/src/main/webapp/img/lib/mscae/Unidentified_Feature_Object.svg

<?xml version="1.0" encoding="UTF-8" standalone="no"?>
<svg
   xmlns:dc="http://purl.org/dc/elements/1.1/"
   xmlns:cc="http://creativecommons.org/ns#"
   xmlns:rdf="http://www.w3.org/1999/02/22-rdf-syntax-ns#"
   xmlns:svg="http://www.w3.org/2000/svg"
   xmlns="http://www.w3.org/2000/svg"
   xmlns:sodipodi="http://sodipodi.sourceforge.net/DTD/sodipodi-0.dtd"
   xmlns:inkscape="http://www.inkscape.org/namespaces/inkscape"
   version="1.1"
   id="Layer_1"
   x="0px"
   y="0px"
   width="50"
   height="49.168758"
   viewBox="0 0 50 49.168758"
   enable-background="new 0 0 50 50"
   xml:space="preserve"
   inkscape:version="0.91 r13725"
   sodipodi:docname="Unidentified feature object_COLOR.svg"><metadata
     id="metadata49"><rdf:RDF><cc:Work
         rdf:about=""><dc:format>image/svg+xml</dc:format><dc:type
           rdf:resource="http://purl.org/dc/dcmitype/StillImage" /><dc:title></dc:title></cc:Work></rdf:RDF></metadata><defs
     id="defs47" /><sodipodi:namedview
     pagecolor="#ffffff"
     bordercolor="#666666"
     borderopacity="1"
     objecttolerance="10"
     gridtolerance="10"
     guidetolerance="10"
     inkscape:pageopacity="0"
     inkscape:pageshadow="2"
     inkscape:window-width="1920"
     inkscape:window-height="1018"
     id="namedview45"
     showgrid="false"
     fit-margin-top="0"
     fit-margin-left="0"
     fit-margin-right="0"
     fit-margin-bottom="0"
     inkscape:zoom="16.059062"
     inkscape:cx="25"
     inkscape:cy="24.168999"
     inkscape:window-x="-8"
     inkscape:window-y="-8"
     inkscape:window-maximized="1"
     inkscape:current-layer="Layer_1" /><path
     d="M 23.614,18.374758 C 23.469,18.362758 23.366,18.311758 23.21,18.311758 14.918,18.311758 12.049,21.608758 12.049,21.608758 20.179,26.547758 23.21,37.017758 23.21,37.017758 23.21,37.017758 23.369,36.645758 23.614,36.041758 23.863,36.645758 24.023,37.017758 24.023,37.017758 24.023,37.017758 27.054,26.547758 35.184,21.608758 35.184,21.608758 32.313,18.311758 24.023,18.311758 23.868,18.311758 23.762,18.362758 23.614,18.374758"
     id="path3"
     inkscape:connector-curvature="0"
     style="fill:#e5e5e5" /><path
     d="M 47.111,41.045758 C 47.225,40.959758 47.291,40.910758 47.291,40.910758 47.291,40.910758 45.777,38.499758 42.412,35.896758 40.459,34.386758 37.89,32.810758 34.621,31.603758 L 34.621,31.543758 C 31.344,30.415758 27.613,29.769758 23.642,29.769758 19.675,29.769758 15.942,30.415758 12.666,31.543758 L 12.666,31.603758 C 9.399,32.810758 6.83,34.386758 4.877,35.896758 1.513,38.499758 0,40.910758 0,40.910758 0,40.910758 0.07,40.963758 0.201,41.061758 0.343,41.166758 0.564,41.325758 0.85,41.522758 3.429,43.286758 11.781,49.168758 23.642,49.168758 35.507,49.168758 43.859,43.286758 46.437,41.522758 46.742,41.314758 46.966,41.151758 47.111,41.045758"
     id="path5"
     inkscape:connector-curvature="0"
     style="fill:#3999c6" /><path
     enable-background="new    "
     d="M 38.025,35.011758 C 38.025,37.051758 31.552,38.707758 23.57,38.707758 15.584,38.707758 9.115,37.051758 9.115,35.011758 9.115,32.964758 15.584,31.306758 23.57,31.306758 31.552,31.306758 38.025,32.964758 38.025,35.011758"
     id="path7"
     inkscape:connector-curvature="0"
     style="opacity:0.5;fill:#1e1e1e" /><path
     d="M 23.521,31.306758 23.521,31.306758 23.506,31.306758 23.492,31.306758 C 15.492,31.539758 9.165,33.083758 8.956,34.886758 8.948,34.394758 8.942,33.912758 8.934,33.442758 8.909,31.591758 15.338,29.994758 23.492,29.760758 L 23.506,29.760758 23.521,29.760758 C 31.67,29.994758 38.102,31.591758 38.077,33.442758 38.067,33.912758 38.061,34.394758 38.055,34.886758 37.845,33.083758 31.517,31.539758 23.521,31.306758"
     id="path9"
     inkscape:connector-curvature="0"
     style="fill:#7a7a7a" /><path
     d="M 20.716,34.060758 C 20.414,33.998758 13.365,32.603758 11.82,26.619758 11.754,26.362758 11.859,26.088758 12.094,25.970758 12.318,25.825758 12.608,25.854758 12.795,26.035758 12.836,26.070758 16.463,29.543758 19.451,29.583758 19.697,29.575758 19.91,29.733758 20,29.941758 L 21.367,33.256758 C 21.455,33.446758 21.416,33.676758 21.283,33.855758 21.152,34.020758 20.929,34.100758 20.716,34.060758"
     id="path11"
     inkscape:connector-curvature="0"
     style="fill:#59b4d9" /><path
     d="M 33.392,25.630758 C 33.365,25.665758 30.405,29.302758 27.639,29.694758 27.412,29.713758 27.238,29.880758 27.186,30.097758 L 26.307,33.317758 C 26.248,33.520758 26.305,33.726758 26.452,33.860758 26.605,34.003758 26.816,34.053758 27.002,33.992758 27.273,33.908758 33.645,31.768758 34.363,26.033758 34.402,25.796758 34.262,25.562758 34.031,25.470758 33.812,25.366758 33.55,25.438758 33.392,25.630758"
     id="path13"
     inkscape:connector-curvature="0"
     style="fill:#59b4d9" /><polygon
     points="27.644,37.264 19.433,37.264 20.348,30.924 26.729,30.924 "
     id="polygon15"
     style="fill:#1e1e1e"
     transform="translate(0,-2.4190656e-4)" /><path
     d="M 23.197,37.481758 C 20.946,28.510758 17.651,25.274758 13.613,16.567758 9.691,8.1027581 15.972,-0.1732419 24.035,0.0027581 32.088,0.1897581 37.996,8.7377581 33.691,17.012758 29.27,25.543758 25.845,28.624758 23.197,37.481758"
     id="path17"
     inkscape:connector-curvature="0"
     style="fill:#59b4d9" /><path
     d="M 20.342,14.433758 C 20.325,15.179758 19.975,15.764758 19.561,15.759758 19.139,15.740758 18.823,15.144758 18.829,14.398758 18.846,13.661758 19.205,13.073758 19.61,13.085758 20.031,13.097758 20.355,13.705758 20.342,14.433758"
     id="path19"
     inkscape:connector-curvature="0"
     style="fill:#1e1e1e" /><path
     d="M 28.346,14.636758 C 28.323,15.363758 27.978,15.958758 27.561,15.948758 27.142,15.941758 26.821,15.338758 26.844,14.596758 26.85,13.859758 27.198,13.269758 27.623,13.277758 28.037,13.286758 28.364,13.890758 28.346,14.636758"
     id="path21"
     inkscape:connector-curvature="0"
     style="fill:#1e1e1e" /><path
     d="M 27.645,25.825758 C 25.292,28.483758 24.15,32.085758 23.614,34.516758 23.076,32.085758 21.933,28.483758 19.58,25.825758 19.58,25.825758 15.795,21.798758 12.129,21.762758 12.129,21.762758 22.092,31.233758 23.049,37.183758 L 23.169,37.183758 24.061,37.183758 24.18,37.183758 C 25.139,31.233758 35.097,21.762758 35.097,21.762758 31.429,21.798758 27.645,25.825758 27.645,25.825758 Z"
     id="path23"
     inkscape:connector-curvature="0"
     style="fill:#a0a1a2" /><path
     d="M 23.521,36.884758 23.521,36.884758 23.492,36.884758 C 15.492,36.655758 9.165,35.621758 8.956,33.817758 8.948,34.311758 8.942,34.791758 8.934,35.265758 8.909,37.114758 15.338,38.708758 23.492,38.944758 L 23.492,38.947758 C 23.496,38.947758 23.502,38.944758 23.506,38.944758 23.51,38.944758 23.514,38.947758 23.521,38.947758 L 23.521,38.944758 C 31.67,38.708758 38.102,37.114758 38.077,35.265758 38.067,34.791758 38.061,34.311758 38.055,33.817758 37.845,35.621758 31.517,36.655758 23.521,36.884758"
     id="path25"
     inkscape:connector-curvature="0"
     style="fill:#e5e5e5" /><path
     d="M 43.49,6.9047581 C 39.894,6.9047581 36.979,9.8187581 36.979,13.414758 36.979,14.689758 37.128,15.472758 37.762,16.476758 L 35.623,18.243758 39.135,18.243758 C 40.289,19.285758 41.812,19.924758 43.49,19.924758 47.086,19.924758 50,17.008758 50,13.414758 50,9.8187581 47.086,6.9047581 43.49,6.9047581"
     id="path27"
     inkscape:connector-curvature="0"
     style="fill:#b8d432" /><path
     d="M 46.812,10.701758 C 46.812,11.679758 46.324,12.564758 45.347,13.359758 44.939,13.687758 44.667,13.956758 44.529,14.166758 44.392,14.377758 44.322,14.655758 44.322,15.001758 L 44.322,15.387758 42.498,15.387758 42.498,14.798758 C 42.498,13.951758 42.836,13.243758 43.51,12.672758 43.93,12.326758 44.217,12.041758 44.369,11.817758 44.519,11.592758 44.596,11.321758 44.596,11.004758 44.596,10.709758 44.489,10.468758 44.27,10.281758 44.052,10.093758 43.773,9.9997581 43.431,9.9997581 42.663,9.9997581 41.933,10.306758 41.236,10.918758 L 41.236,8.8077581 C 41.957,8.3777581 42.765,8.1617581 43.664,8.1617581 44.65,8.1617581 45.422,8.3877581 45.978,8.8397581 46.535,9.2907581 46.812,9.9107581 46.812,10.701758 Z"
     id="path29"
     inkscape:connector-curvature="0"
     style="fill:#ffffff" /><path
     d="M 44.744,17.387758 C 44.744,17.724758 44.623,18.002758 44.383,18.222758 44.143,18.442758 43.834,18.551758 43.461,18.551758 43.106,18.551758 42.799,18.440758 42.541,18.218758 42.283,17.996758 42.154,17.719758 42.154,17.387758 42.154,17.055758 42.279,16.780758 42.527,16.563758 42.775,16.345758 43.086,16.237758 43.461,16.237758 43.83,16.237758 44.137,16.345758 44.379,16.563758 44.623,16.779758 44.744,17.055758 44.744,17.387758 Z"
     id="path31"
     inkscape:connector-curvature="0"
     style="fill:#ffffff" /><path
     enable-background="new    "
     d="M 23.643,49.168758 C 35.508,49.168758 43.86,43.286758 46.438,41.522758 46.743,41.314758 46.967,41.151758 47.112,41.045758 42.417,42.938758 33.514,46.374758 23.6,46.374758 13.688,46.374758 4.886,43.003758 0.202,41.061758 0.344,41.166758 0.565,41.325758 0.851,41.522758 3.429,43.286758 11.781,49.168758 23.643,49.168758"
     id="path33"
     inkscape:connector-curvature="0"
     style="opacity:0.5;fill:#1e1e1e" /><path
     enable-background="new    "
     d="M 30.983,18.228758 C 30.996,17.580758 16.591,17.258758 16.571,17.904758 16.562,18.356758 18.208,20.422758 20.551,21.668758 21.429,21.427758 22.496,21.352758 23.603,21.513758 24.561,21.653758 25.39,21.945758 26.03,22.321758 28.942,21.410758 30.976,18.756758 30.983,18.228758 Z"
     id="path35"
     inkscape:connector-curvature="0"
     style="opacity:0.85;fill:#3e3e3e" /><path
     d="M 24.415,18.920758 C 23.694,18.875758 23.645,19.431758 23.674,20.098758 23.706,20.765758 23.756,21.013758 23.458,21.018758 23.164,21.021758 22.736,20.852758 23.108,20.114758 23.486,19.376758 23.137,18.396758 21.649,19.266758 20.475,19.952758 20.622,21.150758 20.736,21.628758 21.578,21.424758 22.57,21.362758 23.604,21.513758 24.562,21.653758 25.391,21.945758 26.031,22.321758 26.142,22.286758 26.242,22.234758 26.351,22.194758 26.361,22.169758 26.371,22.152758 26.382,22.127758 27.207,20.164758 25.137,18.960758 24.415,18.920758 Z"
     id="path37"
     inkscape:connector-curvature="0"
     style="fill:#1e1e1e" /><path
     d="M 25.247,19.034758 C 25.984,19.029758 26.591,18.436758 26.669,17.681758 25.751,17.636758 24.762,17.601758 23.768,17.579758 23.799,18.392758 24.449,19.041758 25.247,19.034758 Z"
     id="path39"
     inkscape:connector-curvature="0"
     style="fill:#ffffff" /><path
     d="M 21.998,18.984758 C 22.794,19.016758 23.463,18.384758 23.519,17.574758 22.761,17.559758 22.007,17.550758 21.29,17.550758 21.059,17.550758 20.838,17.552758 20.615,17.554758 20.653,18.328758 21.249,18.956758 21.998,18.984758 Z"
     id="path41"
     inkscape:connector-curvature="0"
     style="fill:#ffffff" /><path
     d="M 20.552,21.667758 C 21.576,22.211758 22.731,22.601758 23.941,22.627758 24.674,22.644758 25.374,22.525758 26.031,22.320758 25.391,21.944758 24.562,21.652758 23.604,21.512758 22.496,21.351758 21.429,21.427758 20.552,21.667758 Z"
     id="path43"
     inkscape:connector-curvature="0"
     style="fill:#dd5900" /></svg>

<svg xmlns="http://www.w3.org/2000/svg" width="50" height="49.169"><path d="M23.614 18.375c-.145-.012-.248-.063-.404-.063-8.292 0-11.16 3.297-11.16 3.297 8.13 4.94 11.16 15.41 11.16 15.41l.404-.976.41.976s3.03-10.47 11.16-15.41c0 0-2.87-3.297-11.16-3.297-.155 0-.26.05-.41.063" fill="#e5e5e5"/><path d="M47.11 41.046l.18-.135s-1.514-2.41-4.88-5.014c-1.953-1.5-4.522-3.086-7.79-4.293v-.06c-3.277-1.128-7.008-1.774-10.98-1.774s-7.7.646-10.976 1.774v.06C9.4 32.81 6.83 34.387 4.877 35.897 1.513 38.5 0 40.91 0 40.91l.2.15a24.54 24.54 0 0 0 .649.461c2.58 1.764 10.93 7.646 22.792 7.646s20.217-5.882 22.795-7.646a24.05 24.05 0 0 0 .674-.477" fill="#3999c6"/><path d="M38.025 35.012c0 2.04-6.473 3.696-14.455 3.696S9.115 37.052 9.115 35.012c0-2.047 6.47-3.705 14.455-3.705s14.455 1.658 14.455 3.705" opacity=".5" fill="#1e1e1e"/><path d="M23.52 31.307h-.03c-8 .233-14.327 1.777-14.536 3.58l-.022-1.444c-.025-1.85 6.404-3.448 14.558-3.682h.03c8.15.234 14.58 1.83 14.556 3.682l-.022 1.444c-.2-1.803-6.538-3.347-14.534-3.58" fill="#7a7a7a"/><path d="M20.716 34.06c-.302-.062-7.35-1.457-8.896-7.44-.066-.257.04-.53.274-.65.224-.145.514-.116.7.065.04.035 3.668 3.508 6.656 3.548a.59.59 0 0 1 .55.358l1.367 3.315c.088.2.05.42-.084.6a.59.59 0 0 1-.567.205m12.676-8.43c-.027.035-2.987 3.672-5.753 4.064-.227.02-.4.186-.453.403l-.88 3.22c-.06.203-.002.4.145.543.153.143.364.193.55.132.27-.084 6.643-2.224 7.36-7.96a.52.52 0 0 0-.332-.563c-.22-.104-.48-.032-.64.16" fill="#59b4d9"/><path d="M27.644 37.264h-8.21l.915-6.34h6.38z" fill="#1e1e1e"/><path d="M23.197 37.482c-2.25-8.97-5.546-12.207-9.584-20.914C9.69 8.103 15.972-.173 24.035.003c8.053.187 13.96 8.735 9.656 17-4.42 8.53-7.846 11.612-10.494 20.47" fill="#59b4d9"/><path d="M20.342 14.434c-.017.746-.367 1.33-.78 1.326-.422-.02-.738-.615-.732-1.36.017-.737.376-1.325.78-1.313.42.012.745.62.732 1.348m8.004.202c-.023.727-.368 1.322-.785 1.312s-.74-.6-.717-1.352c.006-.737.354-1.327.78-1.32.414.01.74.613.723 1.36" fill="#1e1e1e"/><path d="M27.645 25.826c-2.353 2.658-3.495 6.26-4.03 8.69-.538-2.43-1.68-6.033-4.034-8.69 0 0-3.785-4.027-7.45-4.063 0 0 9.963 9.47 10.92 15.42h1.13c.96-5.95 10.917-15.42 10.917-15.42-3.668.036-7.452 4.063-7.452 4.063z" fill="#a0a1a2"/><path d="M23.52 36.885h-.03c-8-.23-14.327-1.263-14.536-3.067l-.022 1.448c-.025 1.85 6.404 3.443 14.558 3.68v.003c.018-.003.022 0 .03 0v-.003c8.15-.236 14.58-1.83 14.556-3.68l-.022-1.448c-.2 1.804-6.538 2.838-14.534 3.067" fill="#e5e5e5"/><path d="M43.5 6.905a6.51 6.51 0 0 0-6.511 6.51c0 1.275.15 2.058.783 3.062l-2.14 1.767h3.512c1.154 1.042 2.677 1.68 4.355 1.68a6.51 6.51 0 0 0 0-13.02" fill="#b8d432"/><path d="M46.812 10.702c0 .978-.488 1.863-1.465 2.658-.408.328-.68.597-.818.807s-.207.5-.207.835v.386h-1.824v-.6c0-.847.338-1.555 1.012-2.126.42-.346.707-.63.86-.855s.227-.496.227-.813c0-.295-.107-.536-.326-.723s-.498-.28-.84-.28c-.768 0-1.498.307-2.195.92V8.8c.72-.43 1.53-.646 2.428-.646.986 0 1.758.226 2.314.678s.834 1.07.834 1.862zm-2.068 6.686c0 .337-.12.615-.36.835s-.55.33-.922.33a1.36 1.36 0 0 1-.92-.333 1.05 1.05 0 0 1-.387-.831 1.05 1.05 0 0 1 .373-.824c.248-.218.56-.326.934-.326s.676.108.918.326a1.06 1.06 0 0 1 .365.824z" fill="#fff"/><path d="M23.643 49.17c11.865 0 20.217-5.882 22.795-7.646a24.05 24.05 0 0 0 .674-.477c-4.695 1.893-13.598 5.33-23.512 5.33S4.886 43.004.202 41.062a24.54 24.54 0 0 0 .649.461c2.578 1.764 10.93 7.646 22.792 7.646" opacity=".5" fill="#1e1e1e"/><path d="M30.983 18.23c.013-.648-14.392-.97-14.412-.324-.01.452 1.637 2.518 3.98 3.764.878-.24 1.945-.316 3.052-.155.958.14 1.787.432 2.427.808 2.912-.91 4.946-3.565 4.953-4.093z" opacity=".85" fill="#3e3e3e"/><path d="M24.415 18.92c-.72-.045-.77.51-.74 1.178s.082.915-.216.92-.722-.166-.35-.904c.378-.738.03-1.718-1.46-.848-1.174.686-1.027 1.884-.913 2.362a7.63 7.63 0 0 1 2.868-.115c.958.14 1.787.432 2.427.808.11-.035.21-.087.32-.127.01-.025.02-.042.03-.067.825-1.963-1.245-3.167-1.967-3.207z" fill="#1e1e1e"/><path d="M25.247 19.035c.737-.005 1.344-.598 1.422-1.353l-2.9-.102c.03.813.68 1.462 1.48 1.455zm-3.25-.05c.796.032 1.465-.6 1.52-1.4l-2.23-.024-.675.004c.038.774.634 1.402 1.383 1.43z" fill="#fff"/><path d="M20.552 21.668c1.024.544 2.18.934 3.39.96a6.49 6.49 0 0 0 2.09-.307c-.64-.376-1.47-.668-2.427-.808-1.108-.16-2.175-.085-3.052.155z" fill="#dd5900"/></svg>
